assets/wordpress-icon.svg

<svg fill="none" height="41" viewBox="0 0 41 41" width="41" xmlns="http://www.w3.org/2000/svg" xmlns:xlink="http://www.w3.org/1999/xlink"><clipPath id="a"><path d="m9 9h23v23h-23z"/></clipPath><rect fill="#131117" height="40" rx="20" width="40" x=".5" y=".5"/><g clip-path="url(#a)"><path d="m11.7717 16.6098 4.5595 12.4882c-3.1894-1.5453-5.3861-4.8156-5.3861-8.598 0-1.3881.2965-2.6998.8266-3.8902zm15.1791 3.4095c0-1.1814-.4223-1.999-.7862-2.6369-.4851-.7861-.9388-1.4554-.9388-2.2416 0-.8804.6648-1.698 1.6037-1.698.0404 0 .0809.0045.1258.009-1.7026-1.5588-3.9666-2.5112-6.4553-2.5112-3.3377 0-6.2756 1.7115-7.9871 4.308.2246.009.4357.0135.6154.0135.9973 0 2.5471-.1213 2.5471-.1213.5166-.0314.575.7278.0629.7862 0 0-.5166.0584-1.0916.0898l3.4814 10.35 2.0934-6.2711-1.4869-4.0789c-.5166-.0314-1.0018-.0898-1.0018-.0898-.5166-.0315-.4537-.8176.0584-.7862 0 0 1.5768.1213 2.5156.1213.9973 0 2.5471-.1213 2.5471-.1213.5166-.0314.575.7278.0629.7862 0 0-.5166.0584-1.0916.0898l3.4545 10.2736.9523-3.1849c.4043-1.3207.7188-2.2686.7188-3.0862zm-6.2846 1.3162-2.866 8.3331c.858.2515 1.7609.3908 2.6998.3908 1.1141 0 2.1787-.1932 3.1715-.5436-.027-.0404-.0494-.0853-.0674-.1303zm8.2207-5.422c.0404.3054.0629.6289.0629.9838 0 .9703-.1797 2.0574-.7277 3.423l-2.92 8.4408c2.8436-1.6576 4.7528-4.7347 4.7528-8.2611 0-1.6621-.4223-3.2254-1.168-4.5865zm2.7537 4.5865c0 6.1453-4.9998 11.1406-11.1406 11.1406-6.1453 0-11.14062-4.9998-11.14062-11.1406 0-6.1453 4.99532-11.14062 11.14062-11.14062 6.1408 0 11.1406 4.99532 11.1406 11.14062zm-.5121 0c0-5.8623-4.7707-10.62852-10.6285-10.62852-5.8623 0-10.62852 4.76622-10.62852 10.62852s4.77072 10.6285 10.62852 10.6285c5.8623 0 10.6285-4.7662 10.6285-10.6285z" fill="#f5f5f5"/></g></svg>

<svg width="41" height="41" viewBox="0 0 41 41" fill="none" xmlns="http://www.w3.org/2000/svg">
<rect x="0.5" y="0.5" width="40" height="40" rx="20" fill="#131117"/>
<g clip-path="url(#clip0_2313_90)">
<path d="M11.7717 16.6098L16.3312 29.098C13.1418 27.5527 10.9451 24.2824 10.9451 20.5C10.9451 19.1119 11.2416 17.8002 11.7717 16.6098ZM26.9508 20.0193C26.9508 18.8379 26.5285 18.0203 26.1646 17.3824C25.6795 16.5963 25.2258 15.927 25.2258 15.1408C25.2258 14.2604 25.8906 13.4428 26.8295 13.4428C26.8699 13.4428 26.9104 13.4473 26.9553 13.4518C25.2527 11.893 22.9887 10.9406 20.5 10.9406C17.1623 10.9406 14.2244 12.6521 12.5129 15.2486C12.7375 15.2576 12.9486 15.2621 13.1283 15.2621C14.1256 15.2621 15.6754 15.1408 15.6754 15.1408C16.192 15.1094 16.2504 15.8686 15.7383 15.927C15.7383 15.927 15.2217 15.9854 14.6467 16.0168L18.1281 26.3668L20.2215 20.0957L18.7346 16.0168C18.218 15.9854 17.7328 15.927 17.7328 15.927C17.2162 15.8955 17.2791 15.1094 17.7912 15.1408C17.7912 15.1408 19.368 15.2621 20.3068 15.2621C21.3041 15.2621 22.8539 15.1408 22.8539 15.1408C23.3705 15.1094 23.4289 15.8686 22.9168 15.927C22.9168 15.927 22.4002 15.9854 21.8252 16.0168L25.2797 26.2904L26.232 23.1055C26.6363 21.7848 26.9508 20.8369 26.9508 20.0193ZM20.6662 21.3355L17.8002 29.6686C18.6582 29.9201 19.5611 30.0594 20.5 30.0594C21.6141 30.0594 22.6787 29.8662 23.6715 29.5158C23.6445 29.4754 23.6221 29.4305 23.6041 29.3855L20.6662 21.3355ZM28.8869 15.9135C28.9273 16.2189 28.9498 16.5424 28.9498 16.8973C28.9498 17.8676 28.7701 18.9547 28.2221 20.3203L25.3021 28.7611C28.1457 27.1035 30.0549 24.0264 30.0549 20.5C30.0549 18.8379 29.6326 17.2746 28.8869 15.9135ZM31.6406 20.5C31.6406 26.6453 26.6408 31.6406 20.5 31.6406C14.3547 31.6406 9.35938 26.6408 9.35938 20.5C9.35938 14.3547 14.3547 9.35938 20.5 9.35938C26.6408 9.35938 31.6406 14.3547 31.6406 20.5ZM31.1285 20.5C31.1285 14.6377 26.3578 9.87148 20.5 9.87148C14.6377 9.87148 9.87148 14.6377 9.87148 20.5C9.87148 26.3623 14.6422 31.1285 20.5 31.1285C26.3623 31.1285 31.1285 26.3623 31.1285 20.5Z" fill="#F5F5F5"/>
</g>
<defs>
<clipPath id="clip0_2313_90">
<rect width="23" height="23" fill="white" transform="translate(9 9)"/>
</clipPath>
</defs>
</svg>
